priv/static/svgs/icons_new/notifications-error.svg

<svg width="32" height="32" viewBox="0 0 32 32" fill="none" xmlns="http://www.w3.org/2000/svg">
<path d="M13.4305 12.7233C13.2352 12.5281 12.9186 12.5281 12.7234 12.7233C12.5281 12.9186 12.5281 13.2352 12.7234 13.4305L13.4305 12.7233ZM18.5695 19.2766C18.7648 19.4719 19.0814 19.4719 19.2766 19.2766C19.4719 19.0813 19.4719 18.7648 19.2766 18.5695L18.5695 19.2766ZM19.2766 13.4305C19.4719 13.2352 19.4719 12.9186 19.2766 12.7233C19.0814 12.5281 18.7648 12.5281 18.5695 12.7233L19.2766 13.4305ZM12.7234 18.5695C12.5281 18.7648 12.5281 19.0813 12.7234 19.2766C12.9186 19.4719 13.2352 19.4719 13.4305 19.2766L12.7234 18.5695ZM12.7234 13.4305L15.6464 16.3535L16.3536 15.6464L13.4305 12.7233L12.7234 13.4305ZM15.6464 16.3535L18.5695 19.2766L19.2766 18.5695L16.3536 15.6464L15.6464 16.3535ZM18.5695 12.7233L15.6464 15.6464L16.3536 16.3535L19.2766 13.4305L18.5695 12.7233ZM15.6464 15.6464L12.7234 18.5695L13.4305 19.2766L16.3536 16.3535L15.6464 15.6464ZM25 16C25 20.9706 20.9706 25 16 25V26C21.5228 26 26 21.5228 26 16H25ZM16 25C11.0294 25 7 20.9706 7 16H6C6 21.5228 10.4772 26 16 26V25ZM7 16C7 11.0294 11.0294 7 16 7V6C10.4772 6 6 10.4772 6 16H7ZM16 7C20.9706 7 25 11.0294 25 16H26C26 10.4772 21.5228 6 16 6V7Z" fill="black"/>
</svg>

<svg width="32" height="32" viewBox="0 0 32 32" fill="none" xmlns="http://www.w3.org/2000/svg">
  <symbol id="item" viewBox="0 0 32 32"  fill="none">
    <path d="M13.43 12.723a.5.5 0 0 0-.707.707l.707-.707Zm5.14 6.554a.5.5 0 1 0 .707-.707l-.707.707Zm.707-5.847a.5.5 0 0 0-.707-.707l.707.707Zm-6.554 5.14a.5.5 0 1 0 .707.707l-.707-.707Zm0-5.14 2.923 2.924.708-.708-2.923-2.923-.708.707Zm2.923 2.924 2.924 2.923.707-.707-2.923-2.924-.708.707Zm2.924-3.63-2.924 2.922.708.707 2.923-2.923-.707-.707Zm-2.924 2.922-2.923 2.924.707.707 2.924-2.924-.708-.707ZM25 16a9 9 0 0 1-9 9v1c5.523 0 10-4.477 10-10h-1Zm-9 9a9 9 0 0 1-9-9H6c0 5.523 4.477 10 10 10v-1Zm-9-9a9 9 0 0 1 9-9V6C10.477 6 6 10.477 6 16h1Zm9-9a9 9 0 0 1 9 9h1c0-5.523-4.477-10-10-10v1Z" fill="currentColor"/>
  </symbol>
</svg>
